icons/svg/basket-fill.svg

﻿<?xml version="1.0" encoding="utf-8"?>
<!DOCTYPE svg PUBLIC "-//W3C//DTD SVG 1.1//EN" "http://www.w3.org/Graphics/SVG/1.1/DTD/svg11.dtd">
<svg xmlns="http://www.w3.org/2000/svg" xmlns:xlink="http://www.w3.org/1999/xlink" version="1.1" baseProfile="full" width="24" height="24" viewBox="0 0 24.00 24.00" enable-background="new 0 0 24.00 24.00" xml:space="preserve">
	<path fill="#000000" fill-opacity="1" stroke-width="0.2" stroke-linejoin="round" d="M 3,2L 6,2L 6,5.00001L 3,5.00001L 3,2 Z M 5.99999,7.00001L 9,7.00001L 9,10L 5.99999,10L 5.99999,7.00001 Z M 8,2.00001L 11,2.00001L 11,5.00001L 8,5.00001L 8,2.00001 Z M 17,11L 12,6.00001L 15,6.00001L 15,2.00002L 19,2.00002L 19,6.00001L 22,6.00001L 17,11 Z M 7.5,22C 6.71932,22 6.0431,21.5527 5.71367,20.9004L 5.70778,20.902L 3.10119,13.4388L 3.00001,13C 3.00001,12.4477 3.44772,12 4.00001,12L 20,12C 20.5522,12 21,12.4477 21,13L 20.9581,13.2874L 18.2863,20.9004C 17.9569,21.5527 17.2807,22 16.5,22L 7.5,22 Z M 7.60718,20L 16.3908,20L 18.5746,14L 5.42336,14L 7.60718,20 Z "/>
</svg>

<svg xmlns="http://www.w3.org/2000/svg" version="1.1" baseProfile="full" width="24" height="24" viewBox="0 0 24.00 24.00" xml:space="preserve"><path fill="#000" fill-opacity="1" stroke-width=".2" stroke-linejoin="round" d="M3 2h3v3H3V2zm3 5h3v3H6V7zm2-5h3v3H8V2zm9 9l-5-5h3V2h4v4h3l-5 5zM7.5 22c-.78 0-1.457-.447-1.786-1.1l-.006.002L3.1 13.44 3 13c0-.552.448-1 1-1h16c.552 0 1 .448 1 1l-.042.287-2.672 7.613c-.33.653-1.005 1.1-1.786 1.1h-9zm.107-2h8.784l2.185-6H5.423l2.184 6z"/></svg>
